src/assets/linkedin.svg

<svg xmlns="http://www.w3.org/2000/svg" xmlns:xlink="http://www.w3.org/1999/xlink" width="80" zoomAndPan="magnify" viewBox="0 0 60 60" height="80" preserveAspectRatio="xMidYMid meet" version="1.0"><path fill="#ffffff" d="M 54.988281 0 L 5.042969 0 C 2.28125 0 0.0585938 2.25 0.0585938 4.984375 L 0.0585938 55.015625 C 0.0585938 57.777344 2.3125 60 5.042969 60 L 54.957031 60 C 57.71875 60 59.941406 57.75 59.941406 55.015625 L 59.941406 4.984375 C 59.96875 2.25 57.75 0 54.988281 0 Z M 17.800781 49.496094 L 8.945312 49.496094 L 8.945312 22.902344 L 17.800781 22.902344 Z M 13.355469 19.691406 C 10.566406 19.691406 8.3125 17.4375 8.3125 14.648438 C 8.3125 11.855469 10.566406 9.605469 13.355469 9.605469 C 16.148438 9.605469 18.398438 11.855469 18.398438 14.648438 C 18.398438 17.4375 16.148438 19.691406 13.355469 19.691406 Z M 51.117188 49.496094 L 42.230469 49.496094 L 42.019531 33.707031 C 42.019531 33.707031 42.230469 29.503906 37.640625 29.535156 C 33.046875 29.566406 32.417969 33.707031 32.417969 33.707031 L 32.417969 49.496094 L 23.472656 49.496094 L 23.472656 22.902344 L 32.054688 22.902344 L 32.054688 26.5625 C 32.054688 26.5625 32.417969 25.363281 34.398438 23.953125 C 36.378906 22.542969 39.648438 22.242188 41.058594 22.300781 C 42.472656 22.359375 44.390625 22.121094 47.605469 24.34375 C 51.054688 26.714844 51.144531 32.925781 51.144531 32.925781 Z M 51.117188 49.496094 " fill-opacity="1" fill-rule="nonzero"/></svg>

<svg xmlns="http://www.w3.org/2000/svg" width="80" height="80" version="1.0" viewBox="0 0 60 60"><path fill="#fff" d="M54.988 0H5.043A4.99 4.99 0 0 0 .059 4.984v50.032C.059 57.777 2.312 60 5.043 60h49.914a4.99 4.99 0 0 0 4.984-4.984V4.984C59.97 2.25 57.75 0 54.988 0ZM17.801 49.496H8.945V22.902h8.856Zm-4.446-29.805a5.038 5.038 0 0 1-5.043-5.043 5.035 5.035 0 0 1 5.043-5.043 5.033 5.033 0 0 1 5.043 5.043c0 2.79-2.25 5.043-5.043 5.043Zm37.762 29.805H42.23l-.21-15.789s.21-4.203-4.38-4.172c-4.593.031-5.222 4.172-5.222 4.172v15.79h-8.945V22.901h8.582v3.66s.363-1.199 2.343-2.609 5.25-1.71 6.66-1.652c1.415.058 3.333-.18 6.547 2.043 3.45 2.37 3.54 8.582 3.54 8.582Zm0 0"/></svg>
